assets/icons/24px/outline/arrow-circle-backward-ten-24px.svg

<svg width="24" height="24" viewBox="0 0 24 24" fill="none" xmlns="http://www.w3.org/2000/svg">
<path d="M4.12222 13.2857C4.12222 17.5462 7.08172 21 11.5 21C15.9183 21 19.5 17.9415 19.5 13.2857C19.5 8.62985 15.9183 5.57136 11.5 5.57136L4.5 5.57137M4.5 5.57137L7.16665 3M4.5 5.57137L7.16665 8.14288" stroke="white" stroke-width="2" stroke-linecap="round" stroke-linejoin="round"/>
<path d="M10 16.5V10.5L8.5 12M12 13.5C12 11.1893 12.5 10.5 13.5 10.5C14.5 10.5 15 11.3107 15 13.5C15 15.6893 14.5 16.5 13.5 16.5C12.5 16.5 12 15.8107 12 13.5Z" stroke="white" stroke-linecap="round" stroke-linejoin="round"/>
</svg>

<svg width="24" height="24" fill="none" xmlns="http://www.w3.org/2000/svg"><path d="M4.122 13.286c0 4.26 2.96 7.714 7.378 7.714s8-3.058 8-7.714c0-4.656-3.582-7.715-8-7.715h-7m0 0L7.167 3M4.5 5.571l2.667 2.572" stroke="#fff" stroke-width="2" stroke-linecap="round" stroke-linejoin="round"/><path d="M10 16.5v-6L8.5 12m3.5 1.5c0-2.31.5-3 1.5-3s1.5.81 1.5 3-.5 3-1.5 3-1.5-.69-1.5-3z" stroke="#fff" stroke-linecap="round" stroke-linejoin="round"/></svg>
